;FLAVOR:Marlin
;TIME:451
;Filament used: 0.294421m
;Layer height: 0.2
;MINX:120.669
;MINY:129.772
;MINZ:0.2
;MAXX:179.374
;MAXY:170.25
;MAXZ:2.2
;ARCWELDERPROCESSED
; Postprocessed by [ArcWelder](https://github.com/FormerLurker/ArcWelderLib)
; Copyright(C) 2021 - Brad Hochgesang
; Version: 1.2.0, Branch: HEAD, BuildDate: 2021-11-21T20:25:43Z
; resolution=0.05mm
; path_tolerance=5.0%
; max_radius=9999.00mm
; g90_influences_extruder=True
; allow_dynamic_precision=True
; default_xyz_precision=3
; default_e_precision=5
; extrusion_rate_variance_percent=5.0%

;Generated with Cura_SteamEngine 5.0.0
M82 ;absolute extrusion mode


; Pre-Processed for Cancel-Object support by preprocess_cancellation v0.2.0
; 1 known objects
EXCLUDE_OBJECT_DEFINE NAME=Inlay_R_22_3mf CENTER=148.833,149.765 POLYGON=[[132.251,141.373],[132.251,158.65],[167.791,158.65],[167.791,141.373]]
START_PRINT BED_TEMP=65.0 EXTRUDER_TEMP=205.0
G92 E0
G92 E0
G1 F2700 E-1
;LAYER_COUNT:11
;LAYER:0
M107
G1 F300 Z0.4
G0 F6000 X125.95 Y133.382 Z0.4
G1 F300 Z0.2
G0 F6000 X121.703 Y143.055
;TYPE:SKIRT
G1 F2700 E0
G3 X122.247 Y139.784 I100.519 J15.037 E0.11031 F1200
G3 X134.524 Y129.797 I12.702 J3.075 E0.67563
G3 X142.285 Y129.846 I2.997 J139.973 E0.93380
G2 X148.836 Y129.772 I0.234 J-269.276 E1.15172
G1 X159.355 Y129.776 E1.50158
G3 X170.287 Y133.476 I0.412 J16.781 E1.89352
G3 X175.164 Y140.563 I-10.404 J12.381 E2.18315
G1 X175.648 Y141.937 E2.2316
G1 X178.473 Y150.476 E2.53075
G3 X177.689 Y162.539 I-14.206 J5.134 E2.94453
G3 X167.424 Y169.950 I-12.863 J-7.002 E3.37997
G3 X163.613 Y170.250 I-3.431 J-19.226 E3.50730
G1 X142.565 Y170.246 E4.20736
G3 X132.056 Y166.944 I-0.471 J-16.874 E4.58065
G3 X128.583 Y164.013 I550.367 J-655.664 E4.73181
G3 X125.762 Y161.730 I30.408 J-40.458 E4.85252
G3 X121.747 Y155.378 I8.996 J-10.131 E5.10567
G3 X120.742 Y151.441 I18.157 J-6.732 E5.24107
G3 X121.072 Y146.511 I14.484 J-1.507 E5.40613
G2 X121.703 Y143.055 I-59.525 J-12.654 E5.52298
G1 F2700 E4.52298
G0 F6000 X121.869 Y149.878
G1 F2700 E5.52298
G3 X122.458 Y145.714 I20.299 J0.748 E5.66315 F1200
G3 X123.425 Y140.017 I972.675 J162.170 E5.85537
G3 X134.546 Y130.997 I11.525 J2.843 E6.36654
G3 X142.284 Y131.046 I2.982 J140.072 E6.62394
G2 X148.836 Y130.972 I0.141 J-277.584 E6.84189
G1 X159.334 Y130.975 E7.19106
G3 X169.533 Y134.409 I0.427 J15.595 E7.55657
G3 X174.033 Y140.962 I-9.479 J11.331 E7.82418
G1 X174.508 Y142.314 E7.87184
G1 X177.329 Y150.838 E8.17047
G3 X176.625 Y161.984 I-13.036 J4.772 E8.55280
G3 X166.403 Y168.899 I-11.834 J-6.480 E8.97908
G3 X163.614 Y169.050 I-2.431 J-19.074 E9.07205
G1 X142.581 Y169.046 E9.77161
G3 X132.797 Y166.000 I-0.485 J-15.677 E10.11887
G3 X129.320 Y163.065 I610.791 J-727.112 E10.27022
G3 X126.545 Y160.821 I29.430 J-39.232 E10.38893
G3 X122.886 Y155.002 I8.376 J-9.327 E10.62049
G3 X121.925 Y151.212 I16.683 J-6.247 E10.75080
G3 X121.869 Y149.878 I14.934 J-1.295 E10.79522
G0 F6000 X121.469 Y149.883
G1 F1200 X121.498 Y148.963 E10.82584
G3 X122.067 Y145.631 I26.539 J2.817 E10.93833
G3 X123.032 Y139.939 I1128.855 J188.454 E11.13038
G3 X134.538 Y130.597 I11.916 J2.919 E11.65957
G3 X142.260 Y130.646 I2.981 J138.631 E11.91644
G2 X148.836 Y130.572 I0.141 J-279.690 E12.13519
G1 X159.341 Y130.575 E12.48459
G3 X169.785 Y134.098 I0.421 J15.994 E12.85893
G3 X174.410 Y140.829 I-9.908 J11.763 E13.13386
G1 X174.888 Y142.189 E13.18181
G1 X177.71 Y150.717 E13.48058
G3 X176.979 Y162.169 I-13.411 J4.893 E13.87342
G3 X167.279 Y169.163 I-12.151 J-6.629 E14.28470
G3 X163.613 Y169.450 I-3.287 J-18.432 E14.40719
G1 X142.576 Y169.446 E15.10688
G3 X132.550 Y166.315 I-0.481 J-16.078 E15.46282
G3 X129.097 Y163.400 I921.379 J-1094.934 E15.61313
G3 X126.284 Y161.124 I34.578 J-45.612 E15.73349
G3 X122.506 Y155.127 I8.485 J-9.534 E15.97227
G3 X121.530 Y151.288 I17.173 J-6.409 E16.10427
G3 X121.469 Y149.883 I15.373 J-1.371 E16.15106
G0 F6000 X121.069 Y149.887
G1 F1200 X121.098 Y148.95 E16.18224
G3 X121.674 Y145.554 I26.860 J2.809 E16.29687
G3 X122.640 Y139.861 I991.693 J165.344 E16.48896
G3 X134.531 Y130.197 I12.309 J2.998 E17.03619
G3 X142.272 Y130.246 I2.989 J139.272 E17.29369
G2 X148.836 Y130.172 I0.267 J-267.508 E17.51204
G1 X159.348 Y130.176 E17.86167
G3 X170.036 Y133.787 I0.419 J16.383 E18.24481
G3 X174.787 Y140.696 I-10.140 J12.061 E18.52709
G1 X175.268 Y142.063 E18.57529
G1 X178.091 Y150.596 E18.87423
G3 X177.334 Y162.354 I-13.791 J5.015 E19.27757
G3 X167.351 Y169.556 I-12.509 J-6.819 E19.70094
G3 X163.613 Y169.850 I-3.348 J-18.661 E19.82584
G1 X142.57 Y169.846 E20.52574
G3 X132.303 Y166.630 I-0.475 J-16.479 E20.89032
G2 X126.023 Y161.427 I-254.620 J300.934 E21.16161
G3 X122.127 Y155.253 I8.731 J-9.826 E21.40755
G3 X121.136 Y151.364 I17.694 J-6.580 E21.54129
G3 X121.069 Y149.887 I15.550 J-1.445 E21.59048
G1 F2700 E20.59048
;MESH:Inlay R 22.3mf
EXCLUDE_OBJECT_START NAME=Inlay_R_22_3mf
G0 F6000 X131.414 Y149.558
G0 X132.501 Y149.683
G0 X136.024 Y148.562
G0 X134.459 Y142.935
G0 X134.532 Y142.559
G0 X134.88 Y142.342
G0 X139.912 Y142.374
G0 X140.22 Y142.615
G0 X142.58 Y149.079
G0 X147.454 Y149.12
G0 X147.785 Y149.528
G0 X148.534 Y149.144
G0 X148.675 Y148.715
G1 F2700 E21.59048
G0 F6000 X148.19 Y148.874
;TYPE:WALL-OUTER
G1 F1200 X148.17 Y149.025 E21.59554
G3 X147.832 Y149.156 I-0.268 J-0.191 E21.60812
G2 X146.426 Y148.400 I-1.473 J1.053 E21.66294
G1 X143.352 Y148.399 E21.76518
G3 X143.162 Y148.263 I-0.001 J-0.200 E21.77330
G1 X141.16 Y142.311 E21.98216
G2 X139.835 Y141.377 I-1.446 J0.645 E22.03860
G1 X134.913 Y141.374 E22.2023
G2 X133.569 Y143.395 I0.059 J1.496 E22.29634
G2 X135.115 Y148.122 I138.548 J-42.697 E22.46176
G3 X134.829 Y148.387 I-0.219 J0.051 E22.47733
G2 X133.444 Y148.446 I-0.458 J5.538 E22.52350
G2 X132.251 Y150.113 I0.357 J1.516 E22.59775
G2 X133.033 Y152.514 I35.239 J-10.149 E22.68178
G2 X134.606 Y153.485 I1.528 J-0.716 E22.74664
G1 X136.791 Y153.485 E22.81932
G3 X136.981 Y153.622 I0.002 J0.197 E22.82749
G2 X137.752 Y155.892 I23.995 J-6.884 E22.90724
G2 X141.632 Y158.627 I3.970 J-1.512 E23.07469
G1 X142.023 Y158.647 E23.08771
G1 X164.499 Y158.648 E23.83527
G2 X167.226 Y157.462 I0.067 J-3.573 E23.93729
G2 X167.609 Y154.564 I-2.683 J-1.829 E24.03831
G1 X164.316 Y144.614 E24.3869
G2 X160.235 Y141.395 I-4.249 J1.190 E24.57160
G1 X159.856 Y141.375 E24.58422
G1 X147.758 Y141.373 E24.9866
G2 X146.340 Y143.230 I0.019 J1.484 E25.07590
G2 X148.190 Y148.874 I407.768 J-130.534 E25.27347
G0 F6000 X148.086 Y149.543
;TYPE:WALL-INNER
G3 X147.349 Y149.234 I-0.175 J-0.616 E25.30196 F1200
G2 X146.342 Y148.800 I-0.972 J0.870 E25.33955
G1 X143.352 Y148.799 E25.439
G3 X142.783 Y148.391 I-0.004 J-0.596 E25.46368
G1 X140.796 Y142.481 E25.67106
G2 X139.669 Y141.777 I-1.114 J0.530 E25.71766
G1 X134.928 Y141.774 E25.87535
G2 X133.970 Y143.353 I0.077 J1.127 E25.94755
G2 X135.495 Y147.996 I177.915 J-55.865 E26.11010
G3 X134.833 Y148.787 I-0.580 J0.187 E26.15070
G1 X133.771 Y148.8 E26.18602
G2 X132.700 Y150.243 I-0.002 J1.118 E26.25489
G2 X133.395 Y152.338 I40.000 J-12.107 E26.32833
G2 X134.545 Y153.085 I1.168 J-0.540 E26.37625
G1 X136.791 Y153.085 E26.45096
G3 X137.361 Y153.496 I0.002 J0.598 E26.47574
G2 X138.122 Y155.738 I21.816 J-6.155 E26.55451
G2 X141.663 Y158.228 I3.603 J-1.361 E26.70733
G2 X142.378 Y158.247 I0.669 J-11.698 E26.73112
G1 X164.485 Y158.248 E27.4664
G2 X166.904 Y157.222 I0.076 J-3.186 E27.55648
G2 X167.198 Y154.599 I-2.369 J-1.593 E27.64790
G1 X163.939 Y144.748 E27.99301
G2 X160.202 Y141.794 I-3.875 J1.062 E28.16244
G1 X159.845 Y141.775 E28.17433
G1 X147.776 Y141.773 E28.57575
G2 X146.755 Y143.225 I-0.005 J1.081 E28.64470
G2 X148.577 Y148.773 I750.517 J-243.402 E28.83894
G3 X148.086 Y149.543 I-0.618 J0.147 E28.87251
G1 F2700 E27.87251
G1 F300 Z0.4
G0 F6000 X148.196 Y149.713 Z0.4
G0 X155.446 Y146.71
;TYPE:WALL-OUTER
G1 F300 Z0.2
G1 F2700 E28.87251
G3 X155.640 Y146.458 I0.194 J-0.052 E28.88448 F1200
G1 X156.809 Y146.458 E28.92336
G1 X156.949 Y146.514 E28.92838
G1 X157.068 Y146.798 E28.93862
G3 X159.245 Y153.301 I-539.686 J184.286 E29.16671
G3 X159.055 Y153.564 I-0.189 J0.063 E29.17902
G1 X157.875 Y153.564 E29.21827
G3 X157.685 Y153.428 I-0.002 J-0.198 E29.22641
G1 X155.446 Y146.71 E29.46193
G0 F6000 X154.962 Y146.87
G0 X157.412 Y154.006
G0 X159.159 Y154.074
G0 X159.159 Y153.956
;TYPE:WALL-INNER
G3 X157.875 Y153.964 I-0.694 J-8.342 E29.50465 F1200
G3 X157.305 Y153.554 I-0.001 J-0.599 E29.52934
G1 X155.059 Y146.812 E29.7657
G3 X155.640 Y146.058 I0.580 J-0.154 E29.80202
G1 X156.809 Y146.058 E29.8409
G3 X157.415 Y146.577 I-0.017 J0.633 E29.86943
G3 X159.625 Y153.175 I-527.216 J180.260 E30.10086
G3 X159.159 Y153.956 I-0.570 J0.189 E30.13490
G0 F6000 X159.159 Y154.074
G0 X157.412 Y154.006
G0 X154.761 Y146.025
G0 X155.08 Y145.828
G1 F1200 X155.341 Y145.703 E30.14453
G1 X155.64 Y145.658 E30.15458
G1 X156.809 Y145.658 E30.19346
G3 X157.794 Y146.449 I-0.003 J1.013 E30.23868
G3 X160.005 Y153.049 I-520.342 J177.985 E30.47019
G3 X159.055 Y154.364 I-0.948 J0.315 E30.53284
G1 X157.875 Y154.364 E30.57208
G3 X156.926 Y153.681 I-0.002 J-0.998 E30.61344
G1 X154.691 Y146.975 E30.84854
G3 X155.080 Y145.828 I0.950 J-0.317 E30.89158
G1 F2700 E29.89158
G1 F300 Z0.4
G0 F6000 X155.166 Y145.648 Z0.4
G0 X135.757 Y148.743
G1 F300 Z0.2
G1 F2700 E30.89158
G3 X134.838 Y149.187 I-0.842 J-0.570 E30.92701 F1200
G1 X133.815 Y149.199 E30.96104
G2 X133.090 Y150.157 I-0.024 J0.735 E31.00746
G2 X133.758 Y152.162 I41.059 J-12.566 E31.07777
G2 X134.606 Y152.685 I0.831 J-0.399 E31.11264
G1 X136.791 Y152.685 E31.18532
G3 X137.741 Y153.370 I0.003 J0.997 E31.22675
G2 X138.491 Y155.584 I22.270 J-6.310 E31.30451
G2 X141.694 Y157.829 I3.241 J-1.217 E31.44272
G1 X142.043 Y157.847 E31.45434
G1 X164.471 Y157.848 E32.2003
G2 X166.582 Y156.983 I0.061 J-2.859 E32.27844
G2 X166.839 Y154.786 I-2.030 J-1.351 E32.35493
G1 X163.562 Y144.882 E32.7019
G2 X160.169 Y142.193 I-3.523 J0.960 E32.85604
G1 X159.834 Y142.175 E32.8672
G1 X147.793 Y142.173 E33.26769
G2 X147.140 Y143.113 I-0.019 J0.684 E33.31247
G2 X148.964 Y148.672 I654.116 J-211.548 E33.50709
G3 X147.122 Y149.591 I-1.036 J0.229 E33.60079
G2 X146.387 Y149.200 I-0.788 J0.595 E33.62936
G1 X143.352 Y149.199 E33.7303
G3 X142.404 Y148.518 I-0.004 J-0.995 E33.77162
G1 X140.431 Y142.651 E33.97749
G2 X139.668 Y142.177 I-0.746 J0.350 E34.00897
G1 X134.943 Y142.174 E34.16612
G2 X134.294 Y142.853 I-0.000 J0.649 E34.20070
G2 X134.367 Y143.279 I1.819 J-0.092 E34.21509
G2 X135.921 Y148.088 I344.925 J-108.805 E34.38322
G3 X135.757 Y148.743 I-1.011 J0.095 E34.40598
G0 F6000 X136.204 Y148.647
;TYPE:SKIN
G3 X135.038 Y149.541 I-1.281 J-0.463 E34.45741 F1200
G2 X133.702 Y149.583 I-0.266 J12.814 E34.50188
G2 X133.437 Y150.060 I0.121 J0.379 E34.52192
G1 X133.509 Y150.333 E34.53131
G1 X134.081 Y151.997 E34.58983
G2 X134.625 Y152.320 I0.541 J-0.292 E34.61181
G1 X136.806 Y152.325 E34.68435
G3 X138.132 Y153.409 I-0.025 J1.383 E34.74560
G1 X138.715 Y155.169 E34.80727
G2 X140.327 Y157.127 I3.048 J-0.867 E34.89397
G2 X142.054 Y157.487 I1.763 J-4.135 E34.95301
G1 X164.46 Y157.488 E35.69823
G2 X166.319 Y156.715 I0.120 J-2.333 E35.76738
G2 X166.488 Y154.886 I-1.732 J-1.082 E35.83078
G1 X164.253 Y148.116 E36.0679
G1 X163.244 Y145.064 E36.17482
G2 X161.094 Y142.733 I-3.208 J0.802 E36.28495
G2 X159.886 Y142.540 I-1.345 J4.539 E36.32575
G1 X147.823 Y142.534 E36.72697
G2 X147.491 Y143.028 I-0.016 J0.348 E36.75038
G2 X149.294 Y148.514 I541.244 J-174.843 E36.94247
G3 X146.844 Y149.805 I-1.364 J0.383 E37.07093
G2 X146.319 Y149.564 I-0.488 J0.370 E37.09074
G1 X143.354 Y149.559 E37.18936
G3 X141.992 Y148.420 I0.017 J-1.404 E37.25300
G1 X140.127 Y142.876 E37.44755
G1 X139.947 Y142.62 E37.45796
G1 X139.702 Y142.538 E37.46655
G1 X135.16 Y142.533 E37.61762
G2 X134.720 Y142.666 I-0.092 J0.488 E37.63333
G2 X134.702 Y143.131 I0.423 J0.249 E37.64927
G2 X136.222 Y147.775 I154.204 J-47.901 E37.81180
G3 X136.204 Y148.647 I-1.284 J0.410 E37.84128
G1 F2700 E36.84128
G1 F300 Z0.4
G0 F6000 X136.037 Y148.333 Z0.4
G0 X160.281 Y153.949
G1 F300 Z0.2
G1 F2700 E37.84128
G3 X159.050 Y154.724 I-1.230 J-0.589 E37.89216 F1200
G1 X157.853 Y154.723 E37.93198
G3 X156.589 Y153.811 I0.021 J-1.361 E37.98703
G1 X154.323 Y147.006 E38.22559
G3 X155.645 Y145.298 I1.319 J-0.345 E38.30813
G1 X156.829 Y145.299 E38.34751
G3 X158.109 Y146.269 I-0.011 J1.344 E38.40449
G3 X160.407 Y153.202 I-237.741 J82.648 E38.64748
G3 X160.281 Y153.949 I-1.345 J0.157 E38.67290
G1 F2700 E37.6729
G1 F300 Z0.4
G0 F6000 X160.197 Y153.6 Z0.4
G0 X162.94 Y144.838
G1 F300 Z0.2
G1 F2700 E38.6729
G1 F1200 X161.032 Y142.931 E38.76262
G0 F6000 X160.313 Y142.777
G1 F1200 X163.242 Y145.706 E38.90039
G0 F6000 X163.521 Y146.551
G1 F1200 X159.714 Y142.744 E39.07946
G0 F6000 X159.149 Y142.744
G1 F1200 X163.801 Y147.396 E39.29828
G0 F6000 X164.08 Y148.241
G1 F1200 X158.582 Y142.743 E39.55689
G0 F6000 X158.016 Y142.742
G1 F1200 X164.359 Y149.086 E39.85526
G0 F6000 X164.639 Y149.931
G1 F1200 X157.45 Y142.742 E40.19341
G0 F6000 X156.884 Y142.742
G1 F1200 X164.919 Y150.777 E40.57135
G0 F6000 X165.198 Y151.622
G1 F1200 X156.317 Y142.741 E40.98909
G0 F6000 X155.751 Y142.74
G1 F1200 X165.477 Y152.467 E41.44659
G0 F6000 X165.757 Y153.312
G1 F1200 X155.185 Y142.74 E41.94387
G1 F2700 E40.94387
G1 F300 Z0.4
G0 F6000 X155.186 Y142.183 Z0.4
G0 X158.403 Y146.523
G1 F300 Z0.2
G1 F2700 E41.94387
G1 F1200 X166.036 Y154.157 E42.30292
G0 F6000 X166.315 Y155.002
G1 F1200 X158.695 Y147.381 E42.66137
G0 F6000 X158.987 Y148.239
G1 F1200 X166.423 Y155.675 E43.01114
G0 F6000 X166.352 Y156.17
G1 F1200 X159.278 Y149.096 E43.34388
G0 F6000 X159.567 Y149.951
G1 F1200 X166.176 Y156.559 E43.65472
G0 F6000 X165.904 Y156.853
G1 F1200 X159.849 Y150.798 E43.93953
G0 F6000 X160.13 Y151.645
G1 F1200 X165.538 Y157.053 E44.1939
G0 F6000 X165.114 Y157.194
G1 F1200 X160.411 Y152.491 E44.41512
G0 F6000 X160.606 Y153.252
G1 F1200 X164.626 Y157.272 E44.60421
G0 F6000 X164.072 Y157.283
G1 F1200 X160.542 Y153.754 E44.77022
G0 F6000 X160.385 Y154.163
G1 F1200 X163.506 Y157.283 E44.917
G0 F6000 X162.94 Y157.283
G1 F1200 X160.132 Y154.475 E45.04908
G0 F6000 X159.809 Y154.718
G1 F1200 X162.375 Y157.283 E45.16976
G0 F6000 X161.809 Y157.283
G1 F1200 X159.401 Y154.876 E45.283
G0 F6000 X158.884 Y154.924
G1 F1200 X161.243 Y157.283 E45.39396
G0 F6000 X160.677 Y157.283
G1 F1200 X158.316 Y154.922 E45.50501
G0 F6000 X157.732 Y154.904
G1 F1200 X160.112 Y157.283 E45.61694
G1 F2700 E44.61694
G1 F300 Z0.4
G0 F6000 X160.112 Y157.84 Z0.4
G0 X157.004 Y145.125
G1 F300 Z0.2
G1 F2700 E45.61694
G1 F1200 X154.619 Y142.74 E45.72912
G0 F6000 X154.053 Y142.739
G1 F1200 X156.414 Y145.101 E45.8402
G0 F6000 X155.849 Y145.101
G1 F1200 X153.486 Y142.738 E45.95134
G0 F6000 X152.921 Y142.738
G1 F1200 X155.323 Y145.14 E46.06433
G0 F6000 X154.909 Y145.292
G1 F1200 X152.354 Y142.737 E46.18451
G0 F6000 X151.788 Y142.737
G1 F1200 X154.58 Y145.529 E46.31583
G0 F6000 X154.322 Y145.837
G1 F1200 X151.222 Y142.737 E46.46165
G0 F6000 X150.656 Y142.736
G1 F1200 X154.158 Y146.238 E46.62637
G0 F6000 X154.099 Y146.745
G1 F1200 X150.089 Y142.735 E46.81499
G0 F6000 X149.524 Y142.735
G1 F1200 X154.273 Y147.484 E47.03837
G0 F6000 X154.553 Y148.33
G1 F1200 X148.957 Y142.735 E47.30156
G0 F6000 X148.391 Y142.734
G1 F1200 X154.835 Y149.178 E47.60467
G0 F6000 X155.118 Y150.026
G1 F1200 X147.829 Y142.738 E47.9475
G0 F6000 X147.759 Y143.233
G1 F1200 X155.4 Y150.874 E48.30691
G0 F6000 X155.682 Y151.723
G1 F1200 X148.036 Y144.076 E48.66658
G0 F6000 X148.318 Y144.924
G1 F1200 X155.965 Y152.571 E49.02627
G0 F6000 X156.247 Y153.419
G1 F1200 X148.597 Y145.768 E49.38612
G0 F6000 X148.875 Y146.612
G1 F1200 X159.546 Y157.283 E49.88805
G0 F6000 X158.98 Y157.283
G1 F1200 X149.154 Y147.457 E50.35024
G0 F6000 X149.433 Y148.302
G1 F1200 X158.415 Y157.284 E50.77272
G0 F6000 X157.85 Y157.284
G1 F1200 X149.533 Y148.967 E51.16393
G0 F6000 X149.439 Y149.439
G1 F1200 X157.284 Y157.284 E51.53294
G0 F6000 X156.718 Y157.284
G1 F1200 X149.254 Y149.82 E51.88402
G0 F6000 X148.989 Y150.12
G1 F1200 X156.153 Y157.284 E52.22099
G0 F6000 X155.587 Y157.284
G1 F1200 X148.638 Y150.335 E52.54785
G0 F6000 X148.213 Y150.475
G1 F1200 X155.021 Y157.284 E52.8681
G0 F6000 X154.456 Y157.284
