;FLAVOR:Marlin
;TIME:372
;Filament used: 0.2563m
;Layer height: 0.2
;MINX:123.6
;MINY:123.6
;MINZ:0.2
;MAXX:176.4
;MAXY:176.399
;MAXZ:0.8
;ARCWELDERPROCESSED
; Postprocessed by [ArcWelder](https://github.com/FormerLurker/ArcWelderLib)
; Copyright(C) 2021 - Brad Hochgesang
; Version: 1.2.0, Branch: HEAD, BuildDate: 2021-11-21T20:25:43Z
; resolution=0.05mm
; path_tolerance=5.0%
; max_radius=9999.00mm
; g90_influences_extruder=True
; allow_dynamic_precision=True
; default_xyz_precision=3
; default_e_precision=5
; extrusion_rate_variance_percent=5.0%

;Generated with Cura_SteamEngine 5.0.0
M82 ;absolute extrusion mode


; Pre-Processed for Cancel-Object support by preprocess_cancellation v0.2.0
; 1 known objects
EXCLUDE_OBJECT_DEFINE NAME=Layer0AndTop_3mf CENTER=150.419,149.611 POLYGON=[[135.2,135.2],[135.2,164.8],[164.8,164.8],[164.8,135.2]]
START_PRINT BED_TEMP=65.0 EXTRUDER_TEMP=210.0
G92 E0
G92 E0
G1 F2700 E-1
;LAYER_COUNT:4
;LAYER:0
M107
G1 F300 Z0.4
G0 F6000 X126.818 Y127.081 Z0.4
G1 F300 Z0.2
G0 F6000 X123.601 Y135.503
;TYPE:SKIRT
G1 F2700 E0
G3 X135.330 Y123.600 I11.470 J-0.428 E0.62249 F1200
G1 X164.293 Y123.6 E1.58581
G3 X172.913 Y126.812 I0.548 J11.703 E1.90025
G3 X176.400 Y135.332 I-8.044 J8.266 E2.21515
G1 X176.396 Y154.823 E2.86343
G3 X154.914 Y176.396 I-21.434 J0.139 E3.98924
G1 X135.544 Y176.399 E4.63348
G3 X123.600 Y164.658 I-0.465 J-11.472 E5.25774
G1 X123.601 Y135.503 E6.22744
G0 F6000 X124.001 Y135.509
G3 X135.330 Y124.000 I11.063 J-0.440 E6.82925 F1200
G1 X164.293 Y124 E7.79256
G3 X172.049 Y126.573 I0.479 J11.533 E8.07058
G3 X176.000 Y135.332 I-7.128 J8.486 E8.40102
G1 X175.996 Y154.823 E9.0493
G3 X154.914 Y175.996 I-21.034 J0.138 E10.15420
G1 X135.549 Y175.999 E10.79829
G3 X124.000 Y164.658 I-0.463 J-11.079 E11.40182
G1 X124.001 Y135.509 E12.37132
G0 F6000 X124.401 Y135.515
G3 X135.330 Y124.400 I10.664 J-0.445 E12.95243 F1200
G1 X164.293 Y124.4 E13.91575
G3 X171.895 Y126.967 I0.484 J11.107 E14.18898
G3 X175.596 Y135.032 I-6.927 J8.061 E14.49333
G1 X175.596 Y154.823 E15.15158
G3 X154.914 Y175.596 I-20.633 J0.139 E16.23560
G1 X135.555 Y175.599 E16.87948
G3 X124.400 Y164.658 I-0.467 J-10.681 E17.46233
G1 X124.401 Y135.515 E18.43163
G0 F6000 X124.801 Y135.521
G3 X135.330 Y124.800 I10.270 J-0.445 E18.99203 F1200
G1 X164.293 Y124.8 E19.95535
G3 X171.739 Y127.361 I0.482 J10.704 E20.22373
G3 X175.200 Y135.332 I-6.861 J7.716 E20.52200
G1 X175.196 Y154.823 E21.17027
G3 X154.914 Y175.196 I-20.232 J0.140 E22.23340
G1 X135.561 Y175.199 E22.87708
G3 X125.073 Y167.295 I-0.447 J-10.317 E23.35086
G3 X124.800 Y164.658 I12.247 J-2.601 E23.43921
G1 X124.801 Y135.521 E24.40831
G1 F2700 E23.40831
;MESH:Layer0AndTop.3mf
EXCLUDE_OBJECT_START NAME=Layer0AndTop_3mf
G0 F6000 X134.335 Y135.521
G0 X135.43 Y135.521
G0 X135.68 Y135.68
G1 F2700 E24.40831
G0 F6000 X135.201 Y135.201
;TYPE:WALL-OUTER
G1 F1200 X135.201 Y164.799 E25.39274
G1 X155.102 Y164.798 E26.05465
G2 X164.799 Y154.895 I-0.105 J-9.802 E26.56661
G1 X164.799 Y135.201 E27.22163
G1 X135.201 Y135.201 E28.20606
G0 F6000 X135.601 Y135.601
;TYPE:WALL-INNER
G1 F1200 X135.601 Y164.399 E29.16389
G1 X155.094 Y164.398 E29.81223
G2 X164.399 Y154.895 I-0.097 J-9.402 E30.30355
G1 X164.399 Y135.601 E30.94527
G1 X135.601 Y135.601 E31.9031
G0 F6000 X136.001 Y136.001
G1 F1200 X136.001 Y163.999 E32.83432
G1 X155.085 Y163.998 E33.46905
G2 X163.999 Y154.895 I-0.087 J-9.001 E33.93977
G1 X163.999 Y136.001 E34.56819
G1 X136.001 Y136.001 E35.49941
G0 F6000 X136.362 Y136.362
;TYPE:SKIN
G1 F1200 X136.362 Y163.639 E36.40665
G1 X155.077 Y163.638 E37.02911
G2 X163.636 Y155.180 I-0.075 J-8.635 E37.47177
G1 X163.636 Y150.001 E37.64403
G1 X163.638 Y136.362 E38.09766
G1 X136.362 Y136.362 E39.00486
G0 F6000 X136.101 Y136.362
G0 X163.149 Y136.101
G0 X163.149 Y136.562
G1 F1200 X163.437 Y136.85 E39.01841
G0 F6000 X163.437 Y137.416
G1 F1200 X162.583 Y136.562 E39.05858
G0 F6000 X162.017 Y136.562
G1 F1200 X163.437 Y137.981 E39.12535
G0 F6000 X163.437 Y138.547
G1 F1200 X161.452 Y136.562 E39.21872
G0 F6000 X160.886 Y136.562
G1 F1200 X163.437 Y139.113 E39.33871
G0 F6000 X163.437 Y139.679
G1 F1200 X160.32 Y136.562 E39.48532
G0 F6000 X159.755 Y136.562
G1 F1200 X163.437 Y140.244 E39.65851
G0 F6000 X163.437 Y140.81
G1 F1200 X159.189 Y136.562 E39.85833
G0 F6000 X158.623 Y136.562
G1 F1200 X163.437 Y141.375 E40.08474
G0 F6000 X163.437 Y141.941
G1 F1200 X158.058 Y136.562 E40.33775
G0 F6000 X157.492 Y136.562
G1 F1200 X163.437 Y142.506 E40.61736
G0 F6000 X163.437 Y143.072
G1 F1200 X156.926 Y136.562 E40.92359
G0 F6000 X156.361 Y136.562
G1 F1200 X163.437 Y143.638 E41.25643
G0 F6000 X163.437 Y144.203
G1 F1200 X155.795 Y136.562 E41.61586
G0 F6000 X155.229 Y136.562
G1 F1200 X163.437 Y144.769 E42.00192
G0 F6000 X163.437 Y145.335
G1 F1200 X154.664 Y136.562 E42.41457
G0 F6000 X154.098 Y136.562
G1 F1200 X163.436 Y145.9 E42.8538
G0 F6000 X163.436 Y146.465
G1 F1200 X153.532 Y136.562 E43.31963
G0 F6000 X152.966 Y136.562
G1 F1200 X163.436 Y147.031 E43.81209
G0 F6000 X163.436 Y147.597
G1 F1200 X152.401 Y136.562 E44.33114
G0 F6000 X151.835 Y136.562
G1 F1200 X163.436 Y148.162 E44.87679
G0 F6000 X163.436 Y148.728
G1 F1200 X151.269 Y136.562 E45.44906
G0 F6000 X150.704 Y136.562
G1 F1200 X163.436 Y149.294 E46.04794
G0 F6000 X163.436 Y149.859
G1 F1200 X150.138 Y136.562 E46.67341
G0 F6000 X149.572 Y136.562
G1 F1200 X163.436 Y150.425 E47.32551
G0 F6000 X163.435 Y150.99
G1 F1200 X149.007 Y136.562 E48.00416
G0 F6000 X148.441 Y136.562
G1 F1200 X163.435 Y151.556 E48.70943
G0 F6000 X163.435 Y152.122
G1 F1200 X147.875 Y136.562 E49.44132
G0 F6000 X147.31 Y136.562
G1 F1200 X163.435 Y152.687 E50.1998
G0 F6000 X163.435 Y153.253
G1 F1200 X146.744 Y136.562 E50.98489
G0 F6000 X146.178 Y136.562
G1 F1200 X163.435 Y153.819 E51.7966
G0 F6000 X163.435 Y154.384
G1 F1200 X145.613 Y136.562 E52.6349
G0 F6000 X145.047 Y136.562
G1 F1200 X163.435 Y154.95 E53.49981
G0 F6000 X163.419 Y155.499
G1 F1200 X144.481 Y136.562 E54.39057
G0 F6000 X143.916 Y136.562
G1 F1200 X163.372 Y156.018 E55.30572
G0 F6000 X163.297 Y156.509
G1 F1200 X143.35 Y136.562 E56.24397
G0 F6000 X142.784 Y136.562
G1 F1200 X163.197 Y156.974 E57.20411
G0 F6000 X163.075 Y157.418
G1 F1200 X142.218 Y136.562 E58.18514
G0 F6000 X141.653 Y136.562
G1 F1200 X162.939 Y157.848 E59.18637
G0 F6000 X162.78 Y158.254
G1 F1200 X141.087 Y136.562 E60.20671
G0 F6000 X140.521 Y136.562
G1 F1200 X162.604 Y158.645 E61.24543
G0 F6000 X162.414 Y159.02
G1 F1200 X139.956 Y136.562 E62.30179
G0 F6000 X139.39 Y136.562
G1 F1200 X162.207 Y159.379 E63.37503
G0 F6000 X161.989 Y159.726
G1 F1200 X138.824 Y136.562 E64.46462
G0 F6000 X138.259 Y136.562
G1 F1200 X161.751 Y160.054 E65.56961
G0 F6000 X161.502 Y160.371
G1 F1200 X137.693 Y136.562 E66.68951
G0 F6000 X137.127 Y136.562
G1 F1200 X161.242 Y160.676 E67.82378
G0 F6000 X160.964 Y160.964
G1 F1200 X136.561 Y136.561 E68.97162
G0 F6000 X136.561 Y137.127
G1 F1200 X160.675 Y161.241 E70.10587
G0 F6000 X160.373 Y161.504
G1 F1200 X136.561 Y137.692 E71.22592
G0 F6000 X136.561 Y138.258
G1 F1200 X160.053 Y161.75 E72.33091
G0 F6000 X159.721 Y161.984
G1 F1200 X136.561 Y138.824 E73.42028
G0 F6000 X136.561 Y139.389
G1 F1200 X159.376 Y162.205 E74.49345
G0 F6000 X159.018 Y162.412
G1 F1200 X136.561 Y139.955 E75.54976
G0 F6000 X136.561 Y140.521
G1 F1200 X158.644 Y162.604 E76.58848
G0 F6000 X158.254 Y162.779
G1 F1200 X136.561 Y141.086 E77.60885
G0 F6000 X136.561 Y141.652
G1 F1200 X157.846 Y162.937 E78.61003
G0 F6000 X157.418 Y163.075
G1 F1200 X136.561 Y142.218 E79.59108
G0 F6000 X136.561 Y142.783
G1 F1200 X156.976 Y163.199 E80.55136
G0 F6000 X156.509 Y163.297
G1 F1200 X136.561 Y143.349 E81.48966
G0 F6000 X136.561 Y143.915
G1 F1200 X156.018 Y163.372 E82.40486
G0 F6000 X155.498 Y163.418
G1 F1200 X136.561 Y144.481 E83.29559
G0 F6000 X136.561 Y145.046
G1 F1200 X154.951 Y163.437 E84.16063
G0 F6000 X154.386 Y163.437
G1 F1200 X136.561 Y145.612 E84.99906
G0 F6000 X136.561 Y146.178
G1 F1200 X153.82 Y163.437 E85.81087
G0 F6000 X153.254 Y163.437
G1 F1200 X136.561 Y146.743 E86.59608
G0 F6000 X136.561 Y147.309
G1 F1200 X152.689 Y163.437 E87.35469
G0 F6000 X152.123 Y163.437
G1 F1200 X136.561 Y147.875 E88.08668
G0 F6000 X136.561 Y148.44
G1 F1200 X151.557 Y163.437 E88.79207
G0 F6000 X150.992 Y163.437
G1 F1200 X136.561 Y149.006 E89.47086
G0 F6000 X136.561 Y149.572
G1 F1200 X150.426 Y163.437 E90.12303
G0 F6000 X149.86 Y163.437
G1 F1200 X136.561 Y150.137 E90.7486
G0 F6000 X136.561 Y150.703
G1 F1200 X149.294 Y163.437 E91.34754
G0 F6000 X148.729 Y163.437
G1 F1200 X136.561 Y151.269 E91.91989
G0 F6000 X136.561 Y151.834
G1 F1200 X148.163 Y163.437 E92.46563
G0 F6000 X147.597 Y163.437
G1 F1200 X136.561 Y152.4 E92.98476
G0 F6000 X136.561 Y152.966
G1 F1200 X147.032 Y163.437 E93.47728
G0 F6000 X146.466 Y163.437
G1 F1200 X136.561 Y153.531 E93.9432
G0 F6000 X136.561 Y154.097
G1 F1200 X145.9 Y163.437 E94.3825
G0 F6000 X145.335 Y163.437
G1 F1200 X136.561 Y154.663 E94.79521
G0 F6000 X136.561 Y155.229
G1 F1200 X144.769 Y163.437 E95.18129
G0 F6000 X144.203 Y163.437
G1 F1200 X136.561 Y155.794 E95.54077
G0 F6000 X136.561 Y156.36
G1 F1200 X143.638 Y163.437 E95.87365
G0 F6000 X143.072 Y163.437
G1 F1200 X136.561 Y156.926 E96.1799
G0 F6000 X136.561 Y157.491
G1 F1200 X142.506 Y163.437 E96.45956
G0 F6000 X141.941 Y163.437
G1 F1200 X136.561 Y158.057 E96.71262
G0 F6000 X136.561 Y158.623
G1 F1200 X141.375 Y163.437 E96.93906
G0 F6000 X140.809 Y163.437
G1 F1200 X136.561 Y159.188 E97.13889
G0 F6000 X136.561 Y159.754
G1 F1200 X140.244 Y163.437 E97.31213
G0 F6000 X139.678 Y163.437
G1 F1200 X136.561 Y160.32 E97.45874
G0 F6000 X136.561 Y160.885
G1 F1200 X139.112 Y163.437 E97.57876
G0 F6000 X138.546 Y163.437
G1 F1200 X136.561 Y161.451 E97.67215
G0 F6000 X136.561 Y162.017
G1 F1200 X137.981 Y163.437 E97.73894
G0 F6000 X137.415 Y163.437
G1 F1200 X136.561 Y162.582 E97.77914
G0 F6000 X136.561 Y163.148
G1 F1200 X136.849 Y163.437 E97.79271
M104 S210
G0 F6000 X136.849 Y163.99
G1 F2700 E96.79271
;MESH:NONMESH
EXCLUDE_OBJECT_END NAME=Layer0AndTop_3mf
G0 F300 X136.849 Y163.99 Z0.4
G0 F6000 X136.173 Y163.827
G0 X135.68 Y135.68
G1 F2700 E97.79271
G0 F6000 X135.201 Y135.201
;TIME_ELAPSED:160.449954
;LAYER:1
M106 S85
;TYPE:WALL-OUTER
;MESH:Layer0AndTop.3mf
EXCLUDE_OBJECT_START NAME=Layer0AndTop_3mf
G1 F1500 X135.201 Y164.8 E98.77717
G1 X155.196 Y164.796 E99.44221
G2 X164.796 Y155.197 I-0.199 J-9.799 E99.94097
G1 X164.797 Y150.001 E100.11379
G1 X164.799 Y135.201 E100.60604
G1 X135.201 Y135.201 E101.59047
G0 F7500 X135.601 Y135.601
;TYPE:WALL-INNER
G1 F1500 X135.601 Y164.4 E102.54833
G1 X155.188 Y164.396 E103.1998
G2 X164.396 Y155.189 I-0.191 J-9.399 E103.67819
G1 X164.397 Y150.001 E103.85074
G1 X164.399 Y135.601 E104.32969
G1 X135.601 Y135.601 E105.28751
G0 F7500 X136.001 Y136.001
G1 F1500 X136.001 Y164 E106.21877
G1 X155.179 Y163.996 E106.85663
G2 X163.996 Y155.182 I-0.180 J-8.998 E107.31465
G1 X163.997 Y150.001 E107.48697
G1 X163.999 Y136.001 E107.95262
G1 X136.001 Y136.001 E108.88383
G0 F7500 X136.362 Y136.362
;TYPE:SKIN
G1 F1500 X136.362 Y163.639 E109.79107
G1 X154.986 Y163.636 E110.41051
G2 X163.636 Y155.173 I0.009 J-8.643 E110.85634
G1 X163.636 Y150.001 E111.02837
G1 X163.638 Y136.362 E111.482
G1 X136.362 Y136.362 E112.3892
G0 F7500 X136.562 Y136.663
G1 F1500 X136.664 Y136.561 E112.394
G0 F7500 X137.23 Y136.561
G1 F1500 X136.562 Y137.229 E112.42542
G0 F7500 X136.562 Y137.795
G1 F1500 X137.796 Y136.561 E112.48347
G0 F7500 X138.361 Y136.561
G1 F1500 X136.562 Y138.36 E112.56809
G0 F7500 X136.562 Y138.926
G1 F1500 X138.927 Y136.561 E112.67933
G0 F7500 X139.493 Y136.561
G1 F1500 X136.562 Y139.492 E112.81719
G0 F7500 X136.562 Y140.058
G1 F1500 X140.058 Y136.561 E112.98166
G0 F7500 X140.624 Y136.561
G1 F1500 X136.562 Y140.623 E113.17272
G0 F7500 X136.562 Y141.189
G1 F1500 X141.19 Y136.561 E113.39041
G0 F7500 X141.755 Y136.561
G1 F1500 X136.562 Y141.755 E113.6347
G0 F7500 X136.562 Y142.32
G1 F1500 X142.321 Y136.561 E113.90558
G0 F7500 X142.887 Y136.561
G1 F1500 X136.562 Y142.886 E114.20309
G0 F7500 X136.562 Y143.452
G1 F1500 X143.452 Y136.561 E114.5272
G0 F7500 X144.018 Y136.561
G1 F1500 X136.562 Y144.017 E114.8779
G0 F7500 X136.562 Y144.583
G1 F1500 X144.584 Y136.561 E115.25524
G0 F7500 X145.149 Y136.561
G1 F1500 X136.562 Y145.149 E115.65916
G0 F7500 X136.562 Y145.714
G1 F1500 X145.715 Y136.561 E116.08969
G0 F7500 X146.281 Y136.561
G1 F1500 X136.562 Y146.28 E116.54685
G0 F7500 X136.562 Y146.846
G1 F1500 X146.846 Y136.561 E117.0306
G0 F7500 X147.412 Y136.561
G1 F1500 X136.562 Y147.411 E117.54095
G0 F7500 X136.562 Y147.977
G1 F1500 X147.978 Y136.561 E118.07792
G0 F7500 X148.544 Y136.561
G1 F1500 X136.562 Y148.543 E118.64152
G0 F7500 X136.562 Y149.109
G1 F1500 X149.109 Y136.561 E119.23171
G0 F7500 X149.675 Y136.561
G1 F1500 X136.562 Y149.674 E119.84851
G0 F7500 X136.562 Y150.24
G1 F1500 X150.241 Y136.561 E120.49193
G0 F7500 X150.806 Y136.561
G1 F1500 X136.562 Y150.806 E121.16195
G0 F7500 X136.562 Y151.371
G1 F1500 X151.372 Y136.561 E121.85856
G0 F7500 X151.938 Y136.561
G1 F1500 X136.562 Y151.937 E122.5818
G0 F7500 X136.562 Y152.503
G1 F1500 X152.503 Y136.561 E123.33164
G0 F7500 X153.069 Y136.561
G1 F1500 X136.562 Y153.068 E124.10808
G0 F7500 X136.562 Y153.634
G1 F1500 X153.635 Y136.561 E124.91114
G0 F7500 X154.2 Y136.561
G1 F1500 X136.562 Y154.2 E125.7408
G0 F7500 X136.562 Y154.765
G1 F1500 X154.766 Y136.561 E126.59706
G0 F7500 X155.332 Y136.561
G1 F1500 X136.562 Y155.331 E127.47995
G0 F7500 X136.562 Y155.897
G1 F1500 X155.897 Y136.561 E128.38943
G0 F7500 X156.463 Y136.561
G1 F1500 X136.562 Y156.462 E129.32551
G0 F7500 X136.562 Y157.028
G1 F1500 X157.029 Y136.561 E130.28822
G0 F7500 X157.595 Y136.561
G1 F1500 X136.562 Y157.594 E131.27754
G0 F7500 X136.562 Y158.159
G1 F1500 X158.16 Y136.561 E132.29345
G0 F7500 X158.726 Y136.561
G1 F1500 X136.562 Y158.725 E133.33597
G0 F7500 X136.562 Y159.291
G1 F1500 X159.292 Y136.561 E134.40512
G0 F7500 X159.857 Y136.561
G1 F1500 X136.562 Y159.857 E135.50087
G0 F7500 X136.562 Y160.422
G1 F1500 X160.423 Y136.561 E136.62322
G0 F7500 X160.989 Y136.561
G1 F1500 X136.562 Y160.988 E137.77219
G0 F7500 X136.562 Y161.554
G1 F1500 X161.554 Y136.561 E138.94776
G0 F7500 X162.12 Y136.561
G1 F1500 X136.562 Y162.119 E140.14993
G0 F7500 X136.562 Y162.685
G1 F1500 X162.686 Y136.561 E141.37873
G0 F7500 X163.251 Y136.561
G1 F1500 X136.562 Y163.251 E142.63412
G0 F7500 X136.941 Y163.437
G1 F1500 X163.437 Y136.941 E143.88041
G0 F7500 X163.437 Y137.507
G1 F1500 X137.506 Y163.437 E145.1001
G0 F7500 X138.072 Y163.437
G1 F1500 X163.437 Y138.073 E146.29317
G0 F7500 X163.437 Y138.638
G1 F1500 X138.638 Y163.437 E147.45964
G0 F7500 X139.203 Y163.437
G1 F1500 X163.437 Y139.204 E148.59951
G0 F7500 X163.437 Y139.77
G1 F1500 X139.769 Y163.437 E149.71275
G0 F7500 X140.335 Y163.437
G1 F1500 X163.437 Y140.335 E150.7994
G0 F7500 X163.437 Y140.901
G1 F1500 X140.9 Y163.437 E151.85945
G0 F7500 X141.467 Y163.437
G1 F1500 X163.437 Y141.467 E152.89285
G0 F7500 X163.437 Y142.033
G1 F1500 X142.033 Y163.437 E153.89963
G0 F7500 X142.598 Y163.437
G1 F1500 X163.437 Y142.598 E154.87983
G0 F7500 X163.436 Y143.165
G1 F1500 X143.164 Y163.437 E155.83336
G0 F7500 X143.73 Y163.437
G1 F1500 X163.436 Y143.73 E156.7603
G0 F7500 X163.436 Y144.296
G1 F1500 X144.295 Y163.437 E157.66063
G0 F7500 X144.861 Y163.437
G1 F1500 X163.436 Y144.862 E158.53434
G0 F7500 X163.436 Y145.427
G1 F1500 X145.427 Y163.437 E159.38145
G0 F7500 X145.993 Y163.436
G1 F1500 X163.436 Y145.993 E160.20192
G0 F7500 X163.436 Y146.559
G1 F1500 X146.559 Y163.436 E160.99576
G0 F7500 X147.124 Y163.436
G1 F1500 X163.436 Y147.124 E161.76303
G0 F7500 X163.436 Y147.69
G1 F1500 X147.69 Y163.436 E162.50367
G0 F7500 X148.256 Y163.436
G1 F1500 X163.436 Y148.256 E163.21769
G0 F7500 X163.436 Y148.821
G1 F1500 X148.821 Y163.436 E163.90514
G0 F7500 X149.387 Y163.436
G1 F1500 X163.435 Y149.388 E164.56591
G0 F7500 X163.435 Y149.954
G1 F1500 X149.953 Y163.436 E165.20006
G0 F7500 X150.519 Y163.435
G1 F1500 X163.435 Y150.519 E165.80759
G0 F7500 X163.435 Y151.085
G1 F1500 X151.085 Y163.435 E166.3885
G0 F7500 X151.651 Y163.435
G1 F1500 X163.435 Y151.651 E166.94278
G0 F7500 X163.435 Y152.216
G1 F1500 X152.216 Y163.435 E167.47049
