;FLAVOR:Marlin
;TIME:372
;Filament used: 0.2563m
;Layer height: 0.2
;MINX:123.6
;MINY:123.6
;MINZ:0.2
;MAXX:176.4
;MAXY:176.399
;MAXZ:0.8
;ARCWELDERPROCESSED
; Postprocessed by [ArcWelder](https://github.com/FormerLurker/ArcWelderLib)
; Copyright(C) 2021 - Brad Hochgesang
; Version: 1.2.0, Branch: HEAD, BuildDate: 2021-11-21T20:25:43Z
; resolution=0.05mm
; path_tolerance=5.0%
; max_radius=9999.00mm
; g90_influences_extruder=True
; allow_dynamic_precision=True
; default_xyz_precision=3
; default_e_precision=5
; extrusion_rate_variance_percent=5.0%

;Generated with Cura_SteamEngine 5.0.0
M82 ;absolute extrusion mode


; Pre-Processed for Cancel-Object support by preprocess_cancellation v0.2.0
; 1 known objects
EXCLUDE_OBJECT_DEFINE NAME=Layer0AndTop_3mf CENTER=150.425,149.616 POLYGON=[[135.2,135.2],[135.2,164.8],[164.8,164.8],[164.8,135.2]]
START_PRINT BED_TEMP=65.0 EXTRUDER_TEMP=205.0
G92 E0
G92 E0
G1 F2700 E-1
;LAYER_COUNT:4
;LAYER:0
M107
G1 F300 Z0.4
G0 F6000 X126.818 Y127.081 Z0.4
G1 F300 Z0.2
G0 F6000 X123.601 Y135.503
;TYPE:SKIRT
G1 F2700 E0
G3 X135.330 Y123.600 I11.470 J-0.428 E0.62249 F1200
G1 X164.293 Y123.6 E1.58581
G3 X172.913 Y126.812 I0.548 J11.703 E1.90025
G3 X176.400 Y135.332 I-8.044 J8.266 E2.21515
G1 X176.396 Y154.823 E2.86343
G3 X154.914 Y176.396 I-21.434 J0.139 E3.98924
G1 X135.544 Y176.399 E4.63348
G3 X123.600 Y164.658 I-0.465 J-11.472 E5.25774
G1 X123.601 Y135.503 E6.22744
G0 F6000 X124.001 Y135.509
G3 X135.330 Y124.000 I11.063 J-0.440 E6.82925 F1200
G1 X164.293 Y124 E7.79256
G3 X172.049 Y126.573 I0.479 J11.533 E8.07058
G3 X176.000 Y135.332 I-7.128 J8.486 E8.40102
G1 X175.996 Y154.823 E9.0493
G3 X154.914 Y175.996 I-21.034 J0.138 E10.15420
G1 X135.549 Y175.999 E10.79829
G3 X124.000 Y164.658 I-0.463 J-11.079 E11.40182
G1 X124.001 Y135.509 E12.37132
G0 F6000 X124.401 Y135.515
G3 X135.330 Y124.400 I10.664 J-0.445 E12.95243 F1200
G1 X164.293 Y124.4 E13.91575
G3 X171.895 Y126.967 I0.484 J11.107 E14.18898
G3 X175.596 Y135.032 I-6.927 J8.061 E14.49333
G1 X175.596 Y154.823 E15.15158
G3 X154.914 Y175.596 I-20.633 J0.139 E16.23560
G1 X135.555 Y175.599 E16.87948
G3 X124.400 Y164.658 I-0.467 J-10.681 E17.46233
G1 X124.401 Y135.515 E18.43163
G0 F6000 X124.801 Y135.521
G3 X135.330 Y124.800 I10.270 J-0.445 E18.99203 F1200
G1 X164.293 Y124.8 E19.95535
G3 X171.739 Y127.361 I0.482 J10.704 E20.22373
G3 X175.200 Y135.332 I-6.861 J7.716 E20.52200
G1 X175.196 Y154.823 E21.17027
G3 X154.914 Y175.196 I-20.232 J0.140 E22.23340
G1 X135.561 Y175.199 E22.87708
G3 X125.073 Y167.295 I-0.447 J-10.317 E23.35086
G3 X124.800 Y164.658 I12.247 J-2.601 E23.43921
G1 X124.801 Y135.521 E24.40831
G1 F2700 E23.40831
;MESH:Layer0AndTop.3mf
EXCLUDE_OBJECT_START NAME=Layer0AndTop_3mf
G0 F6000 X134.335 Y135.521
G0 X135.43 Y135.521
G0 X135.68 Y135.68
G1 F2700 E24.40831
G0 F6000 X135.201 Y135.201
;TYPE:WALL-OUTER
G1 F1200 X135.201 Y164.799 E25.39274
G1 X155.102 Y164.798 E26.05465
G2 X164.799 Y154.895 I-0.100 J-9.797 E26.56663
G1 X164.799 Y135.201 E27.22165
G1 X135.201 Y135.201 E28.20609
G0 F6000 X135.601 Y135.601
;TYPE:WALL-INNER
G1 F1200 X135.601 Y164.399 E29.16391
G1 X155.094 Y164.398 E29.81225
G2 X164.399 Y154.895 I-0.093 J-9.398 E30.30359
G1 X164.399 Y135.601 E30.94532
G1 X135.601 Y135.601 E31.90314
G0 F6000 X136.001 Y136.001
G1 F1200 X136.001 Y163.999 E32.83436
G1 X155.085 Y163.998 E33.46909
G2 X163.999 Y154.895 I-0.084 J-8.999 E33.93983
G1 X163.999 Y136.001 E34.56825
G1 X136.001 Y136.001 E35.49947
G0 F6000 X136.362 Y136.362
;TYPE:SKIN
G1 F1200 X136.362 Y163.639 E36.40671
G1 X155.077 Y163.638 E37.02917
G2 X163.636 Y155.180 I-0.075 J-8.635 E37.47183
G1 X163.638 Y136.362 E38.09772
G1 X136.362 Y136.362 E39.00492
G0 F6000 X136.101 Y136.362
G0 X163.149 Y136.101
G0 X163.149 Y136.562
G1 F1200 X163.437 Y136.85 E39.01847
G0 F6000 X163.437 Y137.416
G1 F1200 X162.583 Y136.562 E39.05864
G0 F6000 X162.017 Y136.562
G1 F1200 X163.437 Y137.981 E39.12541
G0 F6000 X163.437 Y138.547
G1 F1200 X161.452 Y136.562 E39.21878
G0 F6000 X160.886 Y136.562
G1 F1200 X163.437 Y139.113 E39.33877
G0 F6000 X163.437 Y139.679
G1 F1200 X160.32 Y136.562 E39.48538
G0 F6000 X159.755 Y136.562
G1 F1200 X163.437 Y140.244 E39.65857
G0 F6000 X163.437 Y140.81
G1 F1200 X159.189 Y136.562 E39.85839
G0 F6000 X158.623 Y136.562
G1 F1200 X163.437 Y141.375 E40.0848
G0 F6000 X163.437 Y141.941
G1 F1200 X158.058 Y136.562 E40.33781
G0 F6000 X157.492 Y136.562
G1 F1200 X163.437 Y142.506 E40.61742
G0 F6000 X163.437 Y143.072
G1 F1200 X156.926 Y136.562 E40.92365
G0 F6000 X156.361 Y136.562
G1 F1200 X163.437 Y143.638 E41.25649
G0 F6000 X163.437 Y144.203
G1 F1200 X155.795 Y136.562 E41.61592
G0 F6000 X155.229 Y136.562
G1 F1200 X163.437 Y144.769 E42.00198
G0 F6000 X163.437 Y145.335
G1 F1200 X154.664 Y136.562 E42.41463
G0 F6000 X154.098 Y136.562
G1 F1200 X163.436 Y145.9 E42.85386
G0 F6000 X163.436 Y146.465
G1 F1200 X153.532 Y136.562 E43.31969
G0 F6000 X152.966 Y136.562
G1 F1200 X163.436 Y147.031 E43.81215
G0 F6000 X163.436 Y147.597
G1 F1200 X152.401 Y136.562 E44.3312
G0 F6000 X151.835 Y136.562
G1 F1200 X163.436 Y148.162 E44.87685
G0 F6000 X163.436 Y148.728
G1 F1200 X151.269 Y136.562 E45.44913
G0 F6000 X150.704 Y136.562
G1 F1200 X163.436 Y149.294 E46.048
G0 F6000 X163.436 Y149.859
G1 F1200 X150.138 Y136.562 E46.67347
G0 F6000 X149.572 Y136.562
G1 F1200 X163.436 Y150.425 E47.32557
G0 F6000 X163.435 Y150.99
G1 F1200 X149.007 Y136.562 E48.00422
G0 F6000 X148.441 Y136.562
G1 F1200 X163.435 Y151.556 E48.70949
G0 F6000 X163.435 Y152.122
G1 F1200 X147.875 Y136.562 E49.44138
G0 F6000 X147.31 Y136.562
G1 F1200 X163.435 Y152.687 E50.19986
G0 F6000 X163.435 Y153.253
G1 F1200 X146.744 Y136.562 E50.98495
G0 F6000 X146.178 Y136.562
G1 F1200 X163.435 Y153.819 E51.79667
G0 F6000 X163.435 Y154.384
G1 F1200 X145.613 Y136.562 E52.63496
G0 F6000 X145.047 Y136.562
G1 F1200 X163.435 Y154.95 E53.49987
G0 F6000 X163.419 Y155.499
G1 F1200 X144.481 Y136.562 E54.39063
G0 F6000 X143.916 Y136.562
G1 F1200 X163.372 Y156.018 E55.30579
G0 F6000 X163.297 Y156.509
G1 F1200 X143.35 Y136.562 E56.24403
G0 F6000 X142.784 Y136.562
G1 F1200 X163.197 Y156.974 E57.20417
G0 F6000 X163.075 Y157.418
G1 F1200 X142.218 Y136.562 E58.1852
G0 F6000 X141.653 Y136.562
G1 F1200 X162.939 Y157.848 E59.18643
G0 F6000 X162.78 Y158.254
G1 F1200 X141.087 Y136.562 E60.20678
G0 F6000 X140.521 Y136.562
G1 F1200 X162.604 Y158.645 E61.24549
G0 F6000 X162.414 Y159.02
G1 F1200 X139.956 Y136.562 E62.30185
G0 F6000 X139.39 Y136.562
G1 F1200 X162.207 Y159.379 E63.37509
G0 F6000 X161.989 Y159.726
G1 F1200 X138.824 Y136.562 E64.46468
G0 F6000 X138.259 Y136.562
G1 F1200 X161.751 Y160.054 E65.56967
G0 F6000 X161.502 Y160.371
G1 F1200 X137.693 Y136.562 E66.68957
G0 F6000 X137.127 Y136.562
G1 F1200 X161.242 Y160.676 E67.82384
G0 F6000 X160.964 Y160.964
G1 F1200 X136.561 Y136.561 E68.97168
G0 F6000 X136.561 Y137.127
G1 F1200 X160.675 Y161.241 E70.10593
G0 F6000 X160.373 Y161.504
G1 F1200 X136.561 Y137.692 E71.22598
G0 F6000 X136.561 Y138.258
G1 F1200 X160.053 Y161.75 E72.33097
G0 F6000 X159.721 Y161.984
G1 F1200 X136.561 Y138.824 E73.42034
G0 F6000 X136.561 Y139.389
G1 F1200 X159.376 Y162.205 E74.49351
G0 F6000 X159.018 Y162.412
G1 F1200 X136.561 Y139.955 E75.54982
G0 F6000 X136.561 Y140.521
G1 F1200 X158.644 Y162.604 E76.58854
G0 F6000 X158.254 Y162.779
G1 F1200 X136.561 Y141.086 E77.60891
G0 F6000 X136.561 Y141.652
G1 F1200 X157.846 Y162.937 E78.61009
G0 F6000 X157.418 Y163.075
G1 F1200 X136.561 Y142.218 E79.59114
G0 F6000 X136.561 Y142.783
G1 F1200 X156.976 Y163.199 E80.55142
G0 F6000 X156.509 Y163.297
G1 F1200 X136.561 Y143.349 E81.48972
G0 F6000 X136.561 Y143.915
G1 F1200 X156.018 Y163.372 E82.40492
G0 F6000 X155.498 Y163.418
G1 F1200 X136.561 Y144.481 E83.29565
G0 F6000 X136.561 Y145.046
G1 F1200 X154.951 Y163.437 E84.16069
G0 F6000 X154.386 Y163.437
G1 F1200 X136.561 Y145.612 E84.99912
G0 F6000 X136.561 Y146.178
G1 F1200 X153.82 Y163.437 E85.81093
G0 F6000 X153.254 Y163.437
G1 F1200 X136.561 Y146.743 E86.59614
G0 F6000 X136.561 Y147.309
G1 F1200 X152.689 Y163.437 E87.35475
G0 F6000 X152.123 Y163.437
G1 F1200 X136.561 Y147.875 E88.08674
G0 F6000 X136.561 Y148.44
G1 F1200 X151.557 Y163.437 E88.79213
G0 F6000 X150.992 Y163.437
G1 F1200 X136.561 Y149.006 E89.47092
G0 F6000 X136.561 Y149.572
G1 F1200 X150.426 Y163.437 E90.12309
G0 F6000 X149.86 Y163.437
G1 F1200 X136.561 Y150.137 E90.74866
G0 F6000 X136.561 Y150.703
G1 F1200 X149.294 Y163.437 E91.3476
G0 F6000 X148.729 Y163.437
G1 F1200 X136.561 Y151.269 E91.91995
G0 F6000 X136.561 Y151.834
G1 F1200 X148.163 Y163.437 E92.46569
G0 F6000 X147.597 Y163.437
G1 F1200 X136.561 Y152.4 E92.98482
G0 F6000 X136.561 Y152.966
G1 F1200 X147.032 Y163.437 E93.47734
G0 F6000 X146.466 Y163.437
G1 F1200 X136.561 Y153.531 E93.94326
G0 F6000 X136.561 Y154.097
G1 F1200 X145.9 Y163.437 E94.38256
G0 F6000 X145.335 Y163.437
G1 F1200 X136.561 Y154.663 E94.79527
G0 F6000 X136.561 Y155.229
G1 F1200 X144.769 Y163.437 E95.18135
G0 F6000 X144.203 Y163.437
G1 F1200 X136.561 Y155.794 E95.54083
G0 F6000 X136.561 Y156.36
G1 F1200 X143.638 Y163.437 E95.87371
G0 F6000 X143.072 Y163.437
G1 F1200 X136.561 Y156.926 E96.17996
G0 F6000 X136.561 Y157.491
G1 F1200 X142.506 Y163.437 E96.45962
G0 F6000 X141.941 Y163.437
G1 F1200 X136.561 Y158.057 E96.71268
G0 F6000 X136.561 Y158.623
G1 F1200 X141.375 Y163.437 E96.93912
G0 F6000 X140.809 Y163.437
G1 F1200 X136.561 Y159.188 E97.13895
G0 F6000 X136.561 Y159.754
G1 F1200 X140.244 Y163.437 E97.31219
G0 F6000 X139.678 Y163.437
G1 F1200 X136.561 Y160.32 E97.4588
G0 F6000 X136.561 Y160.885
G1 F1200 X139.112 Y163.437 E97.57882
G0 F6000 X138.546 Y163.437
G1 F1200 X136.561 Y161.451 E97.67221
G0 F6000 X136.561 Y162.017
G1 F1200 X137.981 Y163.437 E97.739
G0 F6000 X137.415 Y163.437
G1 F1200 X136.561 Y162.582 E97.7792
G0 F6000 X136.561 Y163.148
G1 F1200 X136.849 Y163.437 E97.79277
M104 S205
G0 F6000 X136.849 Y163.99
G1 F2700 E96.79277
;MESH:NONMESH
EXCLUDE_OBJECT_END NAME=Layer0AndTop_3mf
G0 F300 X136.849 Y163.99 Z0.4
G0 F6000 X136.173 Y163.827
G0 X135.68 Y135.68
G1 F2700 E97.79277
G0 F6000 X135.201 Y135.201
;TIME_ELAPSED:160.450045
;LAYER:1
M106 S85
;TYPE:WALL-OUTER
;MESH:Layer0AndTop.3mf
EXCLUDE_OBJECT_START NAME=Layer0AndTop_3mf
G1 F1500 X135.201 Y164.8 E98.77723
G1 X155.196 Y164.796 E99.44227
G2 X164.796 Y155.197 I-0.199 J-9.799 E99.94103
G1 X164.797 Y150.001 E100.11385
G1 X164.799 Y135.201 E100.6061
G1 X135.201 Y135.201 E101.59053
G0 F7500 X135.601 Y135.601
;TYPE:WALL-INNER
G1 F1500 X135.601 Y164.4 E102.54839
G1 X155.188 Y164.396 E103.19986
G2 X164.396 Y155.189 I-0.191 J-9.399 E103.67825
G1 X164.397 Y150.001 E103.8508
G1 X164.399 Y135.601 E104.32975
G1 X135.601 Y135.601 E105.28758
G0 F7500 X136.001 Y136.001
G1 F1500 X136.001 Y164 E106.21883
G1 X155.179 Y163.996 E106.85669
G2 X163.996 Y155.182 I-0.180 J-8.998 E107.31471
G1 X163.997 Y150.001 E107.48703
G1 X163.999 Y136.001 E107.95268
G1 X136.001 Y136.001 E108.88389
G0 F7500 X136.362 Y136.362
;TYPE:SKIN
G1 F1500 X136.362 Y163.639 E109.79113
G1 X154.986 Y163.636 E110.41057
G2 X163.636 Y155.173 I0.009 J-8.643 E110.85640
G1 X163.636 Y150.001 E111.02843
G1 X163.638 Y136.362 E111.48206
G1 X136.362 Y136.362 E112.38926
G0 F7500 X136.562 Y136.663
G1 F1500 X136.664 Y136.561 E112.39406
G0 F7500 X137.23 Y136.561
G1 F1500 X136.562 Y137.229 E112.42548
G0 F7500 X136.562 Y137.795
G1 F1500 X137.796 Y136.561 E112.48353
G0 F7500 X138.361 Y136.561
G1 F1500 X136.562 Y138.36 E112.56815
G0 F7500 X136.562 Y138.926
G1 F1500 X138.927 Y136.561 E112.67939
G0 F7500 X139.493 Y136.561
G1 F1500 X136.562 Y139.492 E112.81725
G0 F7500 X136.562 Y140.058
G1 F1500 X140.058 Y136.561 E112.98172
G0 F7500 X140.624 Y136.561
G1 F1500 X136.562 Y140.623 E113.17278
G0 F7500 X136.562 Y141.189
G1 F1500 X141.19 Y136.561 E113.39047
G0 F7500 X141.755 Y136.561
G1 F1500 X136.562 Y141.755 E113.63476
G0 F7500 X136.562 Y142.32
G1 F1500 X142.321 Y136.561 E113.90564
G0 F7500 X142.887 Y136.561
G1 F1500 X136.562 Y142.886 E114.20315
G0 F7500 X136.562 Y143.452
G1 F1500 X143.452 Y136.561 E114.52726
G0 F7500 X144.018 Y136.561
G1 F1500 X136.562 Y144.017 E114.87797
G0 F7500 X136.562 Y144.583
G1 F1500 X144.584 Y136.561 E115.2553
G0 F7500 X145.149 Y136.561
G1 F1500 X136.562 Y145.149 E115.65923
G0 F7500 X136.562 Y145.714
G1 F1500 X145.715 Y136.561 E116.08975
G0 F7500 X146.281 Y136.561
G1 F1500 X136.562 Y146.28 E116.54691
G0 F7500 X136.562 Y146.846
G1 F1500 X146.846 Y136.561 E117.03066
G0 F7500 X147.412 Y136.561
G1 F1500 X136.562 Y147.411 E117.54101
G0 F7500 X136.562 Y147.977
G1 F1500 X147.978 Y136.561 E118.07798
G0 F7500 X148.544 Y136.561
G1 F1500 X136.562 Y148.543 E118.64158
G0 F7500 X136.562 Y149.109
G1 F1500 X149.109 Y136.561 E119.23177
G0 F7500 X149.675 Y136.561
G1 F1500 X136.562 Y149.674 E119.84857
G0 F7500 X136.562 Y150.24
G1 F1500 X150.241 Y136.561 E120.49199
G0 F7500 X150.806 Y136.561
G1 F1500 X136.562 Y150.806 E121.16201
G0 F7500 X136.562 Y151.371
G1 F1500 X151.372 Y136.561 E121.85862
G0 F7500 X151.938 Y136.561
G1 F1500 X136.562 Y151.937 E122.58186
G0 F7500 X136.562 Y152.503
G1 F1500 X152.503 Y136.561 E123.3317
G0 F7500 X153.069 Y136.561
G1 F1500 X136.562 Y153.068 E124.10814
G0 F7500 X136.562 Y153.634
G1 F1500 X153.635 Y136.561 E124.9112
G0 F7500 X154.2 Y136.561
G1 F1500 X136.562 Y154.2 E125.74086
G0 F7500 X136.562 Y154.765
G1 F1500 X154.766 Y136.561 E126.59712
G0 F7500 X155.332 Y136.561
G1 F1500 X136.562 Y155.331 E127.48001
G0 F7500 X136.562 Y155.897
G1 F1500 X155.897 Y136.561 E128.38949
G0 F7500 X156.463 Y136.561
G1 F1500 X136.562 Y156.462 E129.32557
G0 F7500 X136.562 Y157.028
G1 F1500 X157.029 Y136.561 E130.28828
G0 F7500 X157.595 Y136.561
G1 F1500 X136.562 Y157.594 E131.2776
G0 F7500 X136.562 Y158.159
G1 F1500 X158.16 Y136.561 E132.29351
G0 F7500 X158.726 Y136.561
G1 F1500 X136.562 Y158.725 E133.33603
G0 F7500 X136.562 Y159.291
G1 F1500 X159.292 Y136.561 E134.40518
G0 F7500 X159.857 Y136.561
G1 F1500 X136.562 Y159.857 E135.50093
G0 F7500 X136.562 Y160.422
G1 F1500 X160.423 Y136.561 E136.62328
G0 F7500 X160.989 Y136.561
G1 F1500 X136.562 Y160.988 E137.77225
G0 F7500 X136.562 Y161.554
G1 F1500 X161.554 Y136.561 E138.94782
G0 F7500 X162.12 Y136.561
G1 F1500 X136.562 Y162.119 E140.14999
G0 F7500 X136.562 Y162.685
G1 F1500 X162.686 Y136.561 E141.37879
G0 F7500 X163.251 Y136.561
G1 F1500 X136.562 Y163.251 E142.63418
G0 F7500 X136.941 Y163.437
G1 F1500 X163.437 Y136.941 E143.88047
G0 F7500 X163.437 Y137.507
G1 F1500 X137.506 Y163.437 E145.10016
G0 F7500 X138.072 Y163.437
G1 F1500 X163.437 Y138.073 E146.29323
G0 F7500 X163.437 Y138.638
G1 F1500 X138.638 Y163.437 E147.4597
G0 F7500 X139.203 Y163.437
G1 F1500 X163.437 Y139.204 E148.59957
G0 F7500 X163.437 Y139.77
G1 F1500 X139.769 Y163.437 E149.71281
G0 F7500 X140.335 Y163.437
G1 F1500 X163.437 Y140.335 E150.79946
G0 F7500 X163.437 Y140.901
G1 F1500 X140.9 Y163.437 E151.85951
G0 F7500 X141.467 Y163.437
G1 F1500 X163.437 Y141.467 E152.89291
G0 F7500 X163.437 Y142.033
G1 F1500 X142.033 Y163.437 E153.89969
G0 F7500 X142.598 Y163.437
G1 F1500 X163.437 Y142.598 E154.87989
G0 F7500 X163.436 Y143.165
G1 F1500 X143.164 Y163.437 E155.83342
G0 F7500 X143.73 Y163.437
G1 F1500 X163.436 Y143.73 E156.76036
G0 F7500 X163.436 Y144.296
G1 F1500 X144.295 Y163.437 E157.66069
G0 F7500 X144.861 Y163.437
G1 F1500 X163.436 Y144.862 E158.5344
G0 F7500 X163.436 Y145.427
G1 F1500 X145.427 Y163.437 E159.38151
G0 F7500 X145.993 Y163.436
G1 F1500 X163.436 Y145.993 E160.20198
G0 F7500 X163.436 Y146.559
G1 F1500 X146.559 Y163.436 E160.99582
G0 F7500 X147.124 Y163.436
G1 F1500 X163.436 Y147.124 E161.76309
G0 F7500 X163.436 Y147.69
G1 F1500 X147.69 Y163.436 E162.50373
G0 F7500 X148.256 Y163.436
G1 F1500 X163.436 Y148.256 E163.21775
G0 F7500 X163.436 Y148.821
G1 F1500 X148.821 Y163.436 E163.9052
G0 F7500 X149.387 Y163.436
G1 F1500 X163.435 Y149.388 E164.56597
G0 F7500 X163.435 Y149.954
G1 F1500 X149.953 Y163.436 E165.20012
G0 F7500 X150.519 Y163.435
G1 F1500 X163.435 Y150.519 E165.80765
G0 F7500 X163.435 Y151.085
G1 F1500 X151.085 Y163.435 E166.38856
G0 F7500 X151.651 Y163.435
G1 F1500 X163.435 Y151.651 E166.94284
G0 F7500 X163.435 Y152.216
G1 F1500 X152.216 Y163.435 E167.47055
G0 F7500 X152.782 Y163.435
